!!!!SEGMENT: pl-wnifc--6824-n_gall-jan-karol--wenn-eines-nur-nicht-so-schwer-op-26-no-2.krn
!!!cenid: 18xx:4060
!!!COM: Gall, Jan Karol
!!!COM-rismID: pe50042628
!!!CDT: 1856-1912
!!!CNT: Polish
!!!OTL: Wenn Eines nur nicht so schwer Op. 26 No. 2
!!!PDT:
!!!AGN:
!!!SMS-siglum: PL-Wnifc
!!!SMS-shelfmark: 6824/n
!!!SMS-shelfwork: W
!!!SMS-variant:
!!!SMS-altvar:
!!!NIFC-rismSourceID: 1001159656
!!!NIFC-rismChildID: 1001159656
!!!NIFC-islandoraID: nifc:213756
!!!URL-pdf-islandora: https://repozytorium.nifc.pl/islandora/object/nifc%3A213756/datastream/PDF/view
!!!URL-scan: https://polish.musicsources.pl/pl/lokalizacje/galeria/druki-muzyczne/16941-wenn-eines-nur-nicht-so-schwer/2 @EN{Scan on Polish Music Sources Website} @PL{Skany w portalu Dziedzictwo Muzyki Polskiej w otwartym dostępie}
!!!ONB-nifc:
!!!OMD: Non troppo lento.
!!!AIN: 1 piano 1 vox
!!!key: d
**kern	**kern	**dynam	**kern	**text	**text
*part2	*part2	*part2	*part1	*part1	*part1
*staff3	*staff2	*	*staff1	*staff1	*staff1
*I"Fortepian.	*I"Fortepian.	*	*I"Śpiew.	*	*
*Ipiano	*Ipiano	*	*Ivox	*	*
*ICklav	*ICklav	*	*ICvox	*	*
*IGacmp	*IGacmp	*	*IGsolo	*	*
*clefF4	*clefG2	*	*clefG2	*	*
*k[b-]	*k[b-]	*	*k[b-]	*	*
*d:	*d:	*	*d:	*	*
*M6/8	*M6/8	*	*M6/8	*	*
=-	=-	=-	=-	=-	=-
8D\	8d/	.	8d/	Wenn	O
=1	=1	=1	=1	=1	=1
*^	*^	*	*	*	*
8A:/L	8D: 8BB-:\	8a:/L	8d: 8B-:\	.	8a/	Ei-	gdy-
8G/	8r	8g/	8r	.	8g/	-nes	-bym
8F/J	8r	8f/J	8r	.	8f/	nur	w_nie-
8E/L	4r	8e/L	4r	.	8e/L	nicht	-do-
8F/	.	8f/	.	.	8f/J	.	.
8D/J	8r	8d/J	8r	.	8d/	so	-li
=2	=2	=2	=2	=2	=2	=2	=2
[4.E/	8r	[4.e/	8r	.	[4.e/	schwer,	tej,
.	8DL 8GG\	.	8dL 8B-\	.	.	.	.
.	8DJ 8GG\	.	8dJ 8B-\	.	.	.	.
4E/]	8DL 8GG\	4e/]	8dL 8B-\	.	8e/]	.	.
.	8D 8GG\	.	8d 8B-\	.	8r	.	.
8E/	8DJ 8GG\	8e/	8dJ 8B-\	.	8e/	wenn	o
=3	=3	=3	=3	=3	=3	=3	=3
8d:/L	8G: 8E:\	8dd:/L	8g: 8e:\	.	8dd\	Ei-	gdy-
8c/	8r	8cc/	8r	.	8cc\	-nes	-bym
8B-/J	8r	8b-/J	8r	.	8b-\	nur	w_nie-
8A/L	4r	8a/L	4r	.	8a/L	nicht	-do-
8B-/	.	8b-/	.	.	8b-/J	.	.
8F#X/J	8r	8f#X/J	8r	.	8f#X/	so	-li
!!LO:LB:g=original
=4	=4	=4	=4	=4	=4	=4	=4
4A/	8r	4a/	8r	.	4a/	schwer,	tej,
.	8EL 8C\	.	8eL 8c\	.	.	.	.
8G/	8EJ 8C 8BB-\	8g/	8eJ 8c\	.	8g/	wenn	mógł
8G/L	8E 8C 8BB-\	8g/L	8e 8c\	.	8g/L	das	choć
8A/	8r	8a/	8r	.	8a/J	.	.
8B-/J	8r	8b-/J	8r	.	8b-\	Ver-	za-
=5	=5	=5	=5	=5	=5	=5	=5
!LO:TX:t=P:problem=mixed beam	!	!	!	!	!	!	!
8c>\L	8G: 8C: 8AA:\	8cc:L 8g:/	8ryy	.	8cc\	-ges-	-po-
8F/	8ryy	8f/	8r	.	8f/	-sen	-mnieć
8E/J	8ryy	8e/J	8r	.	8e/	so	o
8F/L	4r	8f/L	4r	.	8f/L	schwer	bo-
8G/	.	8g/	.	.	8g/J	.	.
8A/J	8r	8a/J	8r	.	8a/	nicht	-lu
=6	=6	=6	=6	=6	=6	=6	=6
8c/L	8D 8GG\	8cc/L	8f 8d\	.	8cc\L	wär,	mym,
8B-/	8r	8b-/	8r	.	8b-\J	.	.
8A/J	8r	8a/J	8r	.	8a/	so	mógł
!LO:TX:t=P:problem=mixed beam	!	!	!	!	!	!	!
8B-/L	4r	8b-/L	8r	.	8b-\L	schwer,	choć
8c/	.	8cc/	8r	.	8cc\J	.	.
8b->J 8g> 8d>\	8FF\	8dd/J	8ryy	.	8dd\	so	za-
*v	*v	*	*	*	*	*	*
*	*v	*v	*	*	*	*
=7	=7	=7	=7	=7	=7
N(16EE\LL	4dd 4b- 4g 4d/	.	(4.dd\	schwer	-po-
16E\	.	.	.	.	.
16G\	.	.	.	.	.
16B-\JJ	.	.	.	.	.
8r	16d/LL	.	.	.	.
.	16g/JJN)	.	.	.	.
4r	4b-/	.	4b-\)	.	.
8E 8BB-/	8g 8e 8d/	.	8g/	nicht	-mnieć
!!LO:LB:g=original
=8	=8	=8	=8	=8	=8
*^	*^	*	*	*	*
!	!	!	!LO:TX:t=P:problem=mixed beam	!	!	!	!
8ryy	[4.AA\	8.a 8.e 8.d/	16AA</LL	.	[4.a/	wär,	lżej
.	.	.	N[<16E</	.	.	.	.
4EN_\	.	.	N[16A</	.	.	.	.
.	.	16ryy	[<16d\	.	.	.	.
.	.	[8e/	16d\]	.	.	.	.
.	.	.	[>16a\JJ	.	.	.	.
4.AN] 4.E/]	4.AA\]	4.a/]	4.e] 4.c#X\	.	8a/]	.	.
.	.	.	.	.	8r	.	.
!	!	!	!	!	!LO:TX:t=P:problem=cue notes w górnym głosie	!	!
.	.	.	.	.	8a 8A/	so	za-
*	*	*clefF4	*	*	*	*	*
*v	*v	*	*	*	*	*	*
*	*v	*v	*	*	*	*
=9	=9	=9	=9	=9	=9
2.GG 2.GGG/	2.B- 2.F 2.D\	.	8b- 8B-/	schwer	-po-
.	.	.	[4ff [4f/	.	.
.	.	.	8ff]L 8f/]	.	.
.	.	.	8eeJ 8e/	.	.
!	!	!	!LO:N:vis=4	!	!
.	.	.	8b- 8B-/	nicht	-mnieć
=10	=10	=10	=10	=10	=10
*^	*^	*	*	*	*
*	*^	*	*	*	*	*	*
!LO:TX:t=P:problem=mixed beam	!	!	!	!	!	!	!	!
16AAA/LL	8ryy	[<4.AAA\	8.A/	8.E 8.D\	.	[4.a [4.A/	wär.	lżej!
[<16EE/	.	.	.	.	.	.	.	.
[[16AA/	4EE_\	.	.	.	.	.	.	.
16D>\	.	.	16ryy	16ryy	.	.	.	.
16E>\	.	.	[8E/	8ryy	.	.	.	.
N[>16A>\JJ	.	.	.	.	.	.	.	.
8AA]] 8EE] 8AAA/]	4ryy	4ryy	8AN] 8E] 8C#X\	4ryy	.	8a] 8A/]	.	.
8r;	.	.	8r;	.	.	8r;	.	.
*	*	*	*clefG2	*	*	*	*	*
8AA/	8ryy	8ryy	8A/	8ryy	.	8a 8A/	Ich	Ro-
*v	*v	*v	*	*	*	*	*	*
*	*v	*v	*	*	*	*
!!LO:PB:g=original
=11	=11	=11	=11	=11	=11
8AAL 8DD\	8AL 8F/	.	8a 8A/	hab	-dzi-
8D\	8d/	.	8d/	mich	-nę
8G\J	8g/J	.	8g/	ge-	na
8F\L	8f/L	.	8f/	-ris-	zaw-
8C#X\	8c#X/	.	8c#X/	-sen	-sze
8E\J	8e/J	.	8e/	vom	wy-
=12	=12	=12	=12	=12	=12
*^	*^	*	*	*	*
8D\L	4.ryy	8d/L	4.ryy	.	8d/L	Mut-	-dar-
8F\	.	8f/	.	.	8f/J	.	.
8B-\J	.	8b-/J	.	.	8b-\	-ter-	-to
4B-/	4.F 4.D\	4b-/	4.f 4.d\	.	4b-\	-schoos,	mi,
8A/	.	8a/	.	.	8a/	ich	za-
*	*	*v	*v	*	*	*	*
*v	*v	*	*	*	*	*
=13	=13	=13	=13	=13	=13
8AAL 8DD\	8AL 8F/	.	8a 8A/	hab	-bra-
8D\	8d/	.	8d/	mich	-no
8G\J	8g/J	.	8g/	ge-	spo-
8F\L	8f/L	.	8f/	-run-	-ko-
8C#X\	8c#X/	.	8c#X/	-gen	-ju
8E\J	8e/J	.	8e/	von	sło-
!!LO:LB:g=original
=14	=14	=14	=14	=14	=14
*^	*^	*	*	*	*
8D\L	4.ryy	8d/L	4.ryy	.	8d/L	Freun-	-ne-
8F\	.	8f/	.	.	8f/J	.	.
8c\J	.	8cc/J	.	.	8cc\	-den	-czne
.	(8qGG#X/	.	.	.	.	.	.
4c 4F 4D/	4.GG#y\)	4cc/	4.f 4.d\	.	4cc\	los,	dni,
8B-/	.	8b-/	.	.	8b-\	der	a
=15	=15	=15	=15	=15	=15	=15	=15
8A/L	8FL 8D 8AA\	8a/L	8fL 8d\	.	8a/L	Un-	w_mo-
8G#X/	8FJ 8D 8BB-\	8g#X/	8fJ 8d\	.	8g#X/J	.	.
8f/J	8r	8ff/J	8ryy	.	8ff\	-treu	-jem
4f/	4r	4ff/	4r	.	4ff\	Teu-	ser-
8G#/	8F 8D 8BB-\	8g#/	8f 8d\	.	8g#/	-fel	-cu
=16	=16	=16	=16	=16	=16	=16	=16
8A/L	8F 8D 8AA\	8a/L	8f 8d\	.	8a/	hab'	nie-
8c/	8r	8cc/	8r	.	8cc\	ich	-wia-
8B-/J	8r	8b-/J	8r	.	8b-\	ge-	-ry
4.A/	4r	4.a/	4r	.	4a,/	-sehn	jad
.	8r	.	8r	.	16a/	und	zni-
.	.	.	.	.	16a/	die	-szczył
*v	*v	*	*	*	*	*	*
*	*v	*v	*	*	*	*
!!LO:LB:g=original
=17	=17	=17	=17	=17	=17
!	!	!	!LO:TX:a:i:t=molto ritard.	!	!
4r	4r	.	[4.cc\	Lie-	da-
8r	8r	.	.	.	.
4.G 4.E-X 4.GG/	4.g 4.e-X 4.B-/	.	8cc\]	.	.
.	.	.	8b-,\	-be,	-wnej
.	.	.	8e-X/	sie	mi-
=18	=18	=18	=18	=18	=18
8F 8D 8AA/	8f 8d 8A/	.	8d/	muss-	-ło-
8r	8r	.	8en/	-te	-ści
8r	8r	.	8f/	zu	o-
8AAA/	4f 4d 4Bn 4G#X/	.	4f/	Gra-	-sta-
4AA/	.	.	.	.	.
.	8c#X 8A 8Gn/	.	8c#X/	-be	-tni
=19	=19	=19	=19	=19	=19
2.DD/	8r	.	4d/	gehn.	ślad.
!	!LO:TX:a:i:t=a tempo	!	!	!	!
.	8dL 8B- 8F^^</	<	.	.	.
.	8dJ 8B- 8F/	.	8r	.	.
.	8dL 8B- 8F/	.	4r	.	.
.	8d 8B- 8F/	.	.	.	.
.	8dJ 8B- 8F/	[	8r	.	.
!!LO:LB:g=original
=20	=20	=20	=20	=20	=20
!	!LO:TX:a:i:t=accellerando	!	!	!	!
2.EE-X/	8r	.	2.r	.	.
.	8cL 8B- 8G/	<	.	.	.
.	8cJ 8B- 8G/	.	.	.	.
.	8g-XL 8c 8B-/	.	.	.	.
.	8g- 8c 8B-/	.	.	.	.
.	8g-J 8c 8B-/	.	.	.	.
=21	=21	=21	=21	=21	=21
4.DD/	8r	.	2.r	.	.
.	8fL 8d 8B-/	.	.	.	.
.	8f#XJ 8d 8B-/	[	.	.	.
4.CC/	8r	.	.	.	.
.	8gL 8e-X 8B-/	.	.	.	.
.	8ee-XJ 8b- 8g/	.	.	.	.
=22	=22	=22	=22	=22	=22
4.FF/	8r	.	2.r	.	.
.	8ddL 8a 8f/	.	.	.	.
.	8aJ 8e-X 8c/	.	.	.	.
4FF#X/	8r	.	.	.	.
!	!LO:TX:a:i:t=poco a poco rallent.:dur=7e	!	!	!	!
.	8ccL 8a 8e-/	.	.	.	.
8GG/	8b-J 8g 8d/	.	.	.	.
=23	=23	=23	=23	=23	=23
4.AA/	8r	>	2.r	.	.
.	8aL 8f 8c#X/	.	.	.	.
.	8enJ 8c# 8G/	.	.	.	.
4.D\	8r	.	.	.	.
.	8gL 8e 8B-/	.	.	.	.
.	8fJ 8d 8A/	]]	.	.	.
!!LO:PB:g=original
=24	=24	=24	=24	=24	=24
4.GG/	8r	.	2.r	.	.
.	8fL 8d 8B-/	>	.	.	.
.	8enJ 8d 8B-/	.	.	.	.
8EEn/L	8gL 8d 8B-/	.	.	.	.
8FF/	8f 8d 8B-/	.	.	.	.
8GG/J	8eJ 8d 8B-/	.	.	.	.
=25	=25	=25	=25	=25	=25
4AA/	8r	.	4r	.	.
.	4e 4d [4A/	.	.	.	.
8EE/	.	.	8r	.	.
8AAA;</	8a 8e 8c#X 8A;/]	]	8r;	.	.
8r	8r	.	8r	.	.
!	!LO:TX:b:i:t=a tempo	!	!	!	!
8D\	8d/	.	8d/	Wenn	O
=26	=26	=26	=26	=26	=26
*^	*^	*	*	*	*
8A:/L	8D: 8BB-:\	8a:/L	8d: 8B-:\	.	8a/	Ei-	gdy-
8G/	8r	8g/	8r	.	8g/	-nes	-bym
8F/J	8r	8f/J	8r	.	8f/	doch	w_nie-
8E/L	4r	8e/L	4r	.	8e/L	nicht	-do-
8F/	.	8f/	.	.	8f/J	.	.
8D/J	8r	8d/J	8r	.	8d/	so	-li
!!LO:LB:g=original
=27	=27	=27	=27	=27	=27	=27	=27
[4.E/	8r	[4.e/	8r	.	[4.e/	schwer,	tej,
.	8DL 8GG\	.	8dL 8B-\	.	.	.	.
.	8DJ 8GG\	.	8dJ 8B-\	.	.	.	.
4E/]	8DL 8GG\	4e/]	8dL 8B-\	.	8e/]	.	.
.	8D 8GG\	.	8d 8B-\	.	8r	.	.
8E/	8DJ 8GG\	8e/	8dJ 8B-\	.	8e/	wenn	o
=28	=28	=28	=28	=28	=28	=28	=28
8d:/L	8G: 8E:\	8dd:/L	8g: 8e:\	.	8dd\	Ei-	gdy-
8c/	8r	8cc/	8r	.	8cc\	-nes	-bym
8B-/J	8r	8b-/J	8r	.	8b-\	doch	w_nie-
8A/L	4r	8a/L	4r	.	8a/L	nicht	-do-
8B-/	.	8b-/	.	.	8b-/J	.	.
8F#X/J	8r	8f#X/J	8r	.	8f#X/	so	-li
=29	=29	=29	=29	=29	=29	=29	=29
4A/	8r	4a/	8r	.	4a/	schwer,	tej,
.	8EL 8C\	.	8eL 8c\	.	.	.	.
8G/	8EJ 8C 8BB-\	8g/	8eJ 8c\	.	8g/	wenn	mógł
8G/L	8E 8C 8BB-\	8g/L	8e 8c\	.	8g/L	das	choć
8A/	8r	8a/	8r	.	8a/J	.	.
8B-/J	8r	8b-/J	8r	.	8b-\	Ver-	za-
!!LO:LB:g=original
=30	=30	=30	=30	=30	=30	=30	=30
!LO:TX:t=P:problem=mixed beam	!	!	!	!	!	!	!
8c>\L	8G 8C 8AA\	8ccL 8g 8c/	8ryy	.	8cc\	-ges-	-po-
8F/	8r	8f/	8r	.	8f/	-sen	-mnieć
8E/J	8r	8e/J	8r	.	8e/	so	o
8F/L	4r	8f/L	4r	.	8f/L	schwer	bo-
8G/	.	8g/	.	.	8g/J	.	.
8A/J	8r	8a/J	8r	.	8a/	nicht	-lu
=31	=31	=31	=31	=31	=31	=31	=31
8c/L	8D 8GG\	8cc/L	8f 8d\	.	8cc\L	wär,	mym,
8B-/	8r	8b-/	8r	.	8b-\J	.	.
8A/J	8r	8a/J	8r	.	8a/	so	mógł
!LO:TX:t=P:problem=mixed beam	!	!	!	!	!	!	!
8B-/L	4r	8b-/L	4.ryy	.	8b-\L	schwer,	choć
8c/	.	8cc/	.	.	8cc\J	.	.
8d>J\	8FF\	8dd 8b- 8g/J	.	.	8dd\	so	za-
*v	*v	*	*	*	*	*	*
*	*v	*v	*	*	*	*
=32	=32	=32	=32	=32	=32
!LO:TX:t=P:problem=mixed beam	!	!	!	!	!
16EE/LL	4dd 4b- 4g 4d/	.	(4.dd\	schwer	-po-
16E/	.	.	.	.	.
16G/	.	.	.	.	.
16B-/	.	.	.	.	.
16d>\	8r<	.	.	.	.
16g>\JJ	.	.	.	.	.
4r	4b-/	.	4b-\)	.	.
8E 8BB-/	8g 8e 8d/	.	8g/	nicht	-mnieć
!!LO:LB:g=original
=33	=33	=33	=33	=33	=33
*^	*^	*	*	*	*
*	*^	*	*	*	*	*	*
!LO:TX:t=P:problem=mixed beam	!	!	!	!	!	!	!	!
16AA/LL	8ryy	2.AA\	8.a/	8.d\ 8.e	.	[4.a/	wär,	lżej,
[<16E/	.	.	.	.	.	.	.	.
[[16A/	4E\_>	.	.	.	.	.	.	.
[<16d>\	.	.	16ryy	16ryy	.	.	.	.
16d>\]	.	.	[8e/	8ryy	.	.	.	.
N[>16a>\JJ	.	.	.	.	.	.	.	.
4.E/] 4.A]]	4.ryy	.	4.a/N]	4.c#X\ 4.e]	.	8a/]	.	.
.	.	.	.	.	.	8r	.	.
.	.	.	.	.	.	8A/ 8a	so	za
*	*	*	*clefF4	*	*	*	*	*
*v	*v	*v	*	*	*	*	*	*
*	*v	*v	*	*	*	*
=34	=34	=34	=34	=34	=34
2.GG 2.GGG/	2.B- 2.F 2.D\	pp	8b- 8B-/	schwer	-po-
.	.	.	[4ff [4f/	.	.
.	.	.	8ff]L 8f/]	.	.
.	.	.	8ddJ 8d/	.	.
.	.	.	8b- 8B-/	nicht	-mnieć
=35	=35	=35	=35	=35	=35
*^	*^	*	*	*	*
*	*	*	*^	*	*	*	*
16AAA/LL	[4.AAA\	8.A/	8.E 8.D\	8.ryy	.	[4.a [4.A/	wär.	lżej.
[[<16EE/	.	.	.	.	.	.	.	.
[16AA/JJ	.	.	.	.	.	.	.	.
!LO:N:vis=4.	!	!	!	!	!	!	!	!
8.AA_ 8.EE/]]	.	16D/LL	16ryy	8.D\	.	.	.	.
.	.	16E/	[>8E\	.	.	.	.	.
.	.	[16A/JJ	.	.	.	.	.	.
4AA] 4EE 4AAA;</]	4ryy	4A;/]	4E] 4C#X\	4ryy	.	8a] 8A;/]	.	.
.	.	.	.	.	.	8r	.	.
8r	8ryy	8r	8ryy	8ryy	.	8r	.	.
*v	*v	*	*	*	*	*	*	*
*	*v	*v	*v	*	*	*	*
==	==	==	==	==	==
*-	*-	*-	*-	*-	*-
!!!system-decoration: <vox>{(klav)}
!!!RDF**kern: > = above
!!!RDF**kern: < = below
!!!RDF**kern: N = linked
!!!ENC: Berenika Jozajtis
!!!END: 2022-08-16
!!!ENC: Andrzej Kubiczek
!!!END: 2022-09-16!!!YEC: Copyright 2022 Narodowy Instytut Fryderyka Chopina (https://polishscores.org)
!!!YEM: License CC-BY-4.0 (https://creativecommons.org/licenses/by/4.0)
